X:245
T:Untitled Waltz. Le4.245
L:1/4
B:L.Leadley MS#4 c1850
Z:vmp.Mike Hicken 2016 www.village-music-project.org.uk
N: There is a note written underneath the page presumably added
N: by the person who copied the manuscript.
N: It says "This page ??? a different hand using pencil ???? be a
N: late owner filling in the first of the blank pages 81 - 164"
N:
N: The key is shown as C but it seems likely to be G.
N:
N:  * It is not clear if this is a note or not as it looks like a figure eight..
M:3/4
Q:1/4=120
K:C
"NB"G.|]GBd|ABc|B2d|g2b|agf|e2g|d3-|d2G|
GBd|ABc|B2d|g2f|efg|a2e|f3-|f2d|
bag|agf|g3|d2z/B/|cde|d2B|A3-|A2 D|
GBd|ABc|Bdg|e2d|dfa|e2f|g3-|g3 |]

